src/assets/svg/alert.svg

<svg fill="none" height="16" viewBox="0 0 17 16" width="17" xmlns="http://www.w3.org/2000/svg"><path d="m8.44428.222168c-4.28555 0-7.777776 3.492222-7.777776 7.777782 0 4.28555 3.492226 7.77775 7.777776 7.77775 4.28552 0 7.77782-3.4922 7.77782-7.77775 0-4.28556-3.4923-7.777782-7.77782-7.777782zm0 11.666632c-.42778 0-.77778-.35-.77778-.7777 0-.4278.35-.7778.77778-.7778s.77778.35.77778.7778c0 .4277-.35.7777-.77778.7777zm.77778-3.88885c0 .42777-.35.77777-.77778.77777s-.77778-.35-.77778-.77777v-3.11112c0-.42777.35-.77777.77778-.77777s.77778.35.77778.77777z" fill="#eb5757"/></svg>

<svg width="17" height="16" viewBox="0 0 17 16" fill="none" xmlns="http://www.w3.org/2000/svg">
<path d="M8.44428 0.222168C4.15873 0.222168 0.666504 3.71439 0.666504 7.99995C0.666504 12.2855 4.15873 15.7777 8.44428 15.7777C12.7298 15.7777 16.2221 12.2855 16.2221 7.99995C16.2221 3.71439 12.7298 0.222168 8.44428 0.222168ZM8.44428 11.8888C8.0165 11.8888 7.6665 11.5388 7.6665 11.1111C7.6665 10.6833 8.0165 10.3333 8.44428 10.3333C8.87206 10.3333 9.22206 10.6833 9.22206 11.1111C9.22206 11.5388 8.87206 11.8888 8.44428 11.8888ZM9.22206 7.99995C9.22206 8.42772 8.87206 8.77772 8.44428 8.77772C8.0165 8.77772 7.6665 8.42772 7.6665 7.99995V4.88883C7.6665 4.46106 8.0165 4.11106 8.44428 4.11106C8.87206 4.11106 9.22206 4.46106 9.22206 4.88883V7.99995Z" fill="#EB5757"/>
</svg>
